X:171
T:Lovely Joan
M:4/4
L:1/8
Q:1/8=150
K:C
DA | A3 B c3 E | GFDC D2 DE |
F2 FG FEDC | G2 GF D2 D2 |
A2 AB c2 dc | BAGE G3 E |
FGAB c2 EG | GFDC D2 :||
